pk/nutrition.svg

<svg viewBox="0 0 48 48" fill="none" xmlns="http://www.w3.org/2000/svg" height="1em" width="1em">
  <path fill-rule="evenodd" clip-rule="evenodd" d="M24 42C24.8653 42 26.8503 42 29.9551 42C30.0381 39.2631 30.4393 37.7582 31.1586 37.4852C38.6685 34.6357 44 27.434 44 19H4C4 27.2514 9.10319 34.3234 16.3568 37.2941C17.1151 37.6047 17.6815 39.1733 18.056 42C21.0857 42 23.067 42 24 42Z" fill="#2F88FF" stroke="black" stroke-width="4" stroke-linejoin="round"/>
  <path d="M14.4434 26.0225C14.803 27.2103 15.2786 28.191 15.8702 28.9646C16.4484 29.7209 17.1619 30.4223 18.0104 31.0688" stroke="white" stroke-width="4" stroke-linecap="round"/>
  <path d="M32.2009 8.01759C30.9409 7.31418 29.5829 6.76784 28.1528 6.40474M22.0507 6C14.9273 6.8226 9.1442 12.0978 7.5 19M40.5 18.9965C39.8296 16.1847 38.4722 13.643 36.6172 11.5626" stroke="black" stroke-width="4" stroke-linecap="round"/>
</svg>

<svg viewBox="0 0 48 48" fill="none" xmlns="http://www.w3.org/2000/svg" height="1em" width="1em">
  <path fill-rule="evenodd" clip-rule="evenodd" d="M24 42h5.955c.083-2.737.484-4.242 1.204-4.515C38.669 34.635 44 27.434 44 19H4c0 8.251 5.103 15.323 12.357 18.294.758.31 1.325 1.88 1.699 4.706H24Z" fill="#2F88FF" stroke="#000" stroke-width="4" stroke-linejoin="round"/>
  <path d="M14.443 26.023c.36 1.187.836 2.168 1.427 2.942a11.253 11.253 0 0 0 2.14 2.104" stroke="#fff" stroke-width="4" stroke-linecap="round"/>
  <path d="M32.2 8.018a16.767 16.767 0 0 0-4.047-1.613M22.05 6c-7.123.823-12.906 6.098-14.55 13m33-.003a17.144 17.144 0 0 0-3.883-7.434" stroke="#000" stroke-width="4" stroke-linecap="round"/>
</svg>
